img/servicios-institucionales-icon.svg

<svg width="55" height="55" viewBox="0 0 55 55" fill="none" xmlns="http://www.w3.org/2000/svg">
<path d="M49.1811 5.10161C49.1571 4.61116 48.9491 4.14891 48.6003 3.81051C48.2515 3.4721 47.7886 3.28345 47.3073 3.28357H41.9633C41.495 3.28354 41.0437 3.46221 40.698 3.78447C40.3522 4.10672 40.1372 4.54925 40.095 5.02506L37.047 40.075V26.166H33.2955V20.4249C33.294 20.0792 33.2011 19.7404 33.0264 19.4442C32.8517 19.1481 32.6018 18.9056 32.3031 18.7424C32.0044 18.5793 31.6681 18.5015 31.3297 18.5174C30.9912 18.5333 30.6633 18.6422 30.3806 18.8326L19.5969 26.166H18.2895V20.4249C18.2881 20.0792 18.1951 19.7404 18.0204 19.4442C17.8457 19.1481 17.5958 18.9056 17.2972 18.7424C16.9985 18.5793 16.6621 18.5015 16.3237 18.5174C15.9853 18.5333 15.6574 18.6422 15.3746 18.8326L4.12015 26.4876C3.86298 26.6621 3.65206 26.8988 3.50612 27.1766C3.36018 27.4544 3.28373 27.7646 3.28357 28.0798V51.0445C3.28357 51.5521 3.48119 52.0389 3.83296 52.3978C4.18473 52.7567 4.66183 52.9583 5.15931 52.9583H50.2147C51.252 52.9583 51.9948 52.2846 51.9948 51.2283C51.9948 51.0637 49.1811 5.10161 49.1811 5.10161V5.10161ZM12.6623 29.9935V35.7347H8.9108V29.9935H12.6623ZM22.041 29.9935V35.7347H18.2895V29.9935H22.041ZM31.4197 29.9935V35.7347H27.6682V29.9935H31.4197ZM12.6623 39.5622V45.3034H8.9108V39.5622H12.6623ZM22.041 39.5622V45.3034H18.2895V39.5622H22.041ZM31.4197 39.5622V45.3034H27.6682V39.5622H31.4197Z" fill="#C3B214"/>
</svg>

<svg width="55" height="55" fill="none" xmlns="http://www.w3.org/2000/svg"><path d="M49.181 5.102a1.93 1.93 0 0 0-.58-1.291 1.856 1.856 0 0 0-1.294-.527h-5.344c-.468 0-.92.178-1.265.5-.346.323-.56.765-.603 1.241l-3.048 35.05V26.166h-3.752v-5.741a1.948 1.948 0 0 0-.269-.98 1.897 1.897 0 0 0-.723-.703 1.85 1.85 0 0 0-1.922.09l-10.784 7.334h-1.308v-5.741a1.947 1.947 0 0 0-.269-.98 1.897 1.897 0 0 0-.723-.703 1.85 1.85 0 0 0-1.922.09L4.12 26.489a1.9 1.9 0 0 0-.614.689 1.945 1.945 0 0 0-.222.903v22.965c0 .507.197.994.549 1.353.352.359.829.56 1.326.56h45.056c1.037 0 1.78-.673 1.78-1.73 0-.164-2.814-46.126-2.814-46.126zM12.662 29.994v5.74H8.911v-5.74h3.751zm9.379 0v5.74h-3.752v-5.74h3.752zm9.379 0v5.74h-3.752v-5.74h3.752zm-18.758 9.568v5.741H8.911v-5.74h3.751zm9.379 0v5.741h-3.752v-5.74h3.752zm9.379 0v5.741h-3.752v-5.74h3.752z" fill="#C3B214"/></svg>
